src/symbolic/emotes/face-wink-symbolic.svg

<svg xmlns="http://www.w3.org/2000/svg" width="16" height="16"><path d="M8 1C4.13 1 1 4.13 1 8c0 3.86 3.13 7 7 7s7-3.14 7-7c0-3.87-3.13-7-7-7zM5 5c.55 0 1 .45 1 1s-.45 1-1 1-1-.45-1-1 .45-1 1-1zm4.5 1h3c.28 0 .5.22.5.5 0 .27-.22.5-.5.5h-3c-.28 0-.5-.23-.5-.5 0-.28.22-.5.5-.5zM5.17 9.83a4.004 4.004 0 0 0 5.66 0l.7.7C10.6 11.47 9.33 12 8 12c-1.33 0-2.6-.53-3.53-1.47z" fill="#444"/></svg>

<svg xmlns="http://www.w3.org/2000/svg" width="16" height="16" version="1.1">
 <path style="fill:#444444" d="M 8,1 C 4.13,1 1,4.13 1,8 1,11.86 4.13,15 8,15 11.87,15 15,11.86 15,8 15,4.13 11.87,1 8,1 Z M 5,5 C 5.55,5 6,5.45 6,6 6,6.55 5.55,7 5,7 4.45,7 4,6.55 4,6 4,5.45 4.45,5 5,5 Z M 9.5,6 H 12.5 C 12.78,6 13,6.22 13,6.5 13,6.77 12.78,7 12.5,7 H 9.5 C 9.22,7 9,6.77 9,6.5 9,6.22 9.22,6 9.5,6 Z M 5.17,9.83 C 5.92,10.58 6.94,11 8,11 9.06,11 10.08,10.58 10.83,9.83 L 11.53,10.53 C 10.6,11.47 9.33,12 8,12 6.67,12 5.4,11.47 4.47,10.53 Z"/>
</svg>
